icons/folder_type_nix_opened.svg

<svg xmlns="http://www.w3.org/2000/svg" xmlns:xlink="http://www.w3.org/1999/xlink" data-name="folder type nix opened" viewBox="0 0 32 32"><defs><linearGradient id="a" x1="536.24" x2="540.83" y1="1537.03" y2="1544.97" gradientTransform="matrix(.8 0 0 .8 -414.75 -1206.48)" gradientUnits="userSpaceOnUse"><stop offset="0" stop-color="#699ad7"/><stop offset=".24" stop-color="#7eb1dd"/><stop offset="1" stop-color="#7ebae4"/></linearGradient><linearGradient xlink:href="#a" id="c" x1="979.2" x2="983.79" y1="718.68" y2="726.62" gradientTransform="rotate(59.9 883.564 -368.28) scale(.8)"/><linearGradient xlink:href="#a" id="d" x1="-392.84" x2="-388.26" y1="1566.6" y2="1574.53" gradientTransform="rotate(-59.9 -1207.903 352.323) scale(.8)"/><linearGradient xlink:href="#a" id="e" x1="-441.2" x2="-436.61" y1="-45.76" y2="-37.82" gradientTransform="matrix(-.8 0 0 -.8 -325.52 -15.63)"/><linearGradient id="b" x1="-257.74" x2="-253.23" y1="1973.17" y2="1981.14" gradientTransform="matrix(.8 0 0 .8 220.49 -1555.43)" gradientUnits="userSpaceOnUse"><stop offset="0" stop-color="#415e9a"/><stop offset=".23" stop-color="#4a6baf"/><stop offset="1" stop-color="#5277c3"/></linearGradient><linearGradient xlink:href="#b" id="f" x1="-306.31" x2="-301.81" y1="360.59" y2="368.55" gradientTransform="rotate(120.1 -31.602 229.209) scale(.8)"/><linearGradient xlink:href="#b" id="g" x1="-1681.52" x2="-1677.01" y1="1210.07" y2="1218.04" gradientTransform="rotate(-120.1 -928.27 102.1) scale(.8)"/></defs><path d="M27.4 5.5h-9.2l-2.1 4.2H4.3v16.8h25.2v-21Zm0 18.7H6.6V11.8h20.8Zm0-14.5h-8.2l1-2.1h7.1v2.1Z" style="fill:#5b7499"/><path d="M25.7 13.7H.5l3.8 12.8h25.2l-3.8-12.8z" style="fill:#5b7499"/><path d="m16.83 22.29 5 8.69h-2.3l-1.33-2.32L16.86 31h-1.15l-.58-1 1.92-3.3-1.37-2.38Z" style="fill-rule:evenodd;fill:url(#a)"/><path d="m18.64 18.71-5 8.69-1.17-2 1.35-2.33h-2.69l-.57-1 .58-1H15l1.37-2.37Z" style="fill-rule:evenodd;fill:url(#c)"/><path d="M19 25.65h10l-1.13 2h-2.65L26.56 30 26 31h-1.19l-1.89-3.32h-2.74Z" style="fill-rule:evenodd;fill:url(#d)"/><path d="m24.85 21.85-5-8.7h2.3l1.33 2.34 1.35-2.32H26l.59 1-1.92 3.3L26 19.84Z" style="fill-rule:evenodd;fill:url(#e)"/><path d="m16.83 22.29 5 8.69h-2.3l-1.33-2.32L16.86 31h-1.15l-.58-1 1.92-3.3-1.37-2.38Z" style="fill-rule:evenodd;fill:url(#b)"/><path d="M22.64 18.46h-10l1.13-2h2.68l-1.33-2.33.57-1h1.17l1.9 3.32h2.73Z" style="fill-rule:evenodd;fill:url(#f)"/><path d="m23 25.42 5-8.69 1.17 2-1.35 2.33h2.68l.57 1-.58 1h-3.77l-1.38 2.37Z" style="fill-rule:evenodd;fill:url(#g)"/></svg>

<svg id="folder_type_nix_opened" data-name="folder type nix opened" xmlns="http://www.w3.org/2000/svg" xmlns:xlink="http://www.w3.org/1999/xlink" viewBox="0 0 32 32"><defs><linearGradient id="linear-gradient" x1="536.24" y1="1537.03" x2="540.83" y2="1544.97" gradientTransform="translate(-414.75 -1206.48) scale(0.8)" gradientUnits="userSpaceOnUse"><stop offset="0" stop-color="#699ad7"/><stop offset="0.24" stop-color="#7eb1dd"/><stop offset="1" stop-color="#7ebae4"/></linearGradient><linearGradient id="linear-gradient-2" x1="979.2" y1="718.68" x2="983.79" y2="726.62" gradientTransform="translate(121.83 -948) rotate(59.9) scale(0.8)" xlink:href="#linear-gradient"/><linearGradient id="linear-gradient-3" x1="-392.84" y1="1566.6" x2="-388.26" y2="1574.53" gradientTransform="translate(-906.94 -869.39) rotate(-59.9) scale(0.8)" xlink:href="#linear-gradient"/><linearGradient id="linear-gradient-4" x1="-441.2" y1="-45.76" x2="-436.61" y2="-37.82" gradientTransform="translate(-325.52 -15.63) rotate(180) scale(0.8)" xlink:href="#linear-gradient"/><linearGradient id="linear-gradient-5" x1="-257.74" y1="1973.17" x2="-253.23" y2="1981.14" gradientTransform="translate(220.49 -1555.43) scale(0.8)" gradientUnits="userSpaceOnUse"><stop offset="0" stop-color="#415e9a"/><stop offset="0.23" stop-color="#4a6baf"/><stop offset="1" stop-color="#5277c3"/></linearGradient><linearGradient id="linear-gradient-6" x1="-306.31" y1="360.59" x2="-301.81" y2="368.55" gradientTransform="translate(150.85 371.5) rotate(120.1) scale(0.8)" xlink:href="#linear-gradient-5"/><linearGradient id="linear-gradient-7" x1="-1681.52" y1="1210.07" x2="-1677.01" y2="1218.04" gradientTransform="translate(-1482.14 -649.79) rotate(-120.1) scale(0.8)" xlink:href="#linear-gradient-5"/></defs><g id="folder"><path d="M27.4,5.5H18.2L16.1,9.7H4.3V26.5H29.5V5.5Zm0,18.7H6.6V11.8H27.4Zm0-14.5H19.2l1-2.1h7.1V9.7Z" style="fill:#5b7499"/><polygon points="25.7 13.7 0.5 13.7 4.3 26.5 29.5 26.5 25.7 13.7" style="fill:#5b7499"/></g><g id="icon"><path id="path3336-6" d="M16.83,22.29l5,8.69h-2.3L18.2,28.66,16.86,31H15.71l-.58-1,1.92-3.3-1.37-2.38Z" style="fill-rule:evenodd;fill:url(#linear-gradient)"/><g id="use3439-6"><path id="path3336-6-2" d="M18.64,18.71l-5,8.69-1.17-2,1.35-2.33H11.13l-.57-1,.58-1H15l1.37-2.37Z" style="fill-rule:evenodd;fill:url(#linear-gradient-2)"/></g><g id="use3445-0"><path id="path3336-6-3" d="M19,25.65H29l-1.13,2H25.22L26.56,30,26,31H24.81l-1.89-3.32H20.18Z" style="fill-rule:evenodd;fill:url(#linear-gradient-3)"/></g><g id="use3449-5"><path id="path3336-6-4" d="M24.85,21.85l-5-8.7h2.3l1.33,2.34,1.35-2.32H26l.59,1-1.92,3.3L26,19.84Z" style="fill-rule:evenodd;fill:url(#linear-gradient-4)"/></g><path id="path4260-0" d="M16.83,22.29l5,8.69h-2.3L18.2,28.66,16.86,31H15.71l-.58-1,1.92-3.3-1.37-2.38Z" style="fill-rule:evenodd;fill:url(#linear-gradient-5)"/><g id="use4354-5"><path id="path4260-0-2" d="M22.64,18.46h-10l1.13-2h2.68l-1.33-2.33.57-1h1.17l1.9,3.32h2.73Z" style="fill-rule:evenodd;fill:url(#linear-gradient-6)"/></g><g id="use4362-2"><path id="path4260-0-3" d="M23,25.42l5-8.69,1.17,2-1.35,2.33H30.5l.57,1-.58,1H26.72l-1.38,2.37Z" style="fill-rule:evenodd;fill:url(#linear-gradient-7)"/></g></g></svg>
